X:1
T:Deh qual pietà
T:Deh qual pietà
T:Girolamo Scotto
T:Source : Madrigali a tre voci---Venetia---G.Scotto---1541. Editor : André Vierendeels (17/08/16).
T:Notes : Original clefs : C3, C4, F3 Editorial accidentals above the staff Original note values have been halved Square bracket indicates ligature Text by Francesco Petrarcha (Canzionere) "Quinti toni"
T:©
T:©
T:©
T:©
T:©
T:©
T:©
C:Girolamo Scotto
Z:©
%%score [ 1 2 3 ]
L:1/8
Q:1/4=97
M:2/2
K:F
V:1 treble-8 nm="Tenor 1" snm="T 1"
V:2 treble-8 nm="Tenor 2" snm="T 2"
V:3 bass nm="Bass" snm="B"
V:1
 c4 f4- | f2 e2 f3 e | d6 c2 | d2 e2 f3 e | d2 f4 e2 | f2 c2 c2 c2 | f2 f2 e4 | d2 f3 g a2- | %8
w: Deh qual|_ pie- tà, _|_ qual|an- gel fu si|pre- * *|sto, qual an- gel|fu si pre-||
 a2 gf g2 a2- | a2 gf e2 g2- | gf f4 e2 | f2 c2 c2 c2 | d2 e2 fefg | a2 g3 fed | c2 f3 edc | %15
w: |||sto, a por- tar|so- pra'il cie- * * *|lo il _ _ _|_ mi- * * *|
 B3 c de f2 | _e2 d3 c c2- | c2 B2 c2 A2 | d3 e f4- | f2 e2 d2 d2 | c6 c2 | d2 e2 f4 | e8 | %23
w: * * * * o|cor- do- * *|* gli- o? Ch'an-|chor _ _|_ sen- to tor-|nar pur,|co- me so-|glio,|
 z2 c4 B2- | B2 A2 G2 G2 | A2 d2 c2 A2 | G2 c4 d2- | d2 c2 d2 e2 | f4 e2 A2 | A2 d3 c c2- | %30
w: co- me|_ _ _ so-||gli- o, ma-|* don- na'in quel|su- * o,|at- * * *|
 c2 B2 c2 _e2 | _e2 e2 d3 c |"^-natural" de f2 d2 g2- | gf f4 e2 | f4 z2 c2 | c2 c2 _e2 e2 | %36
w: * * to dol-|c'et ho- ne- *|||sto, ad|ac- que- tar il|
 d3 e f2 d2- | d2 _e3 d d2- | d2 c2 d2 f2 | f2 f2 e2 e2 | d6 d2 | G2 c2 B2 A2 | d4 c2 f2- | %43
w: cor _ _ mi-|* se- ro'è me-|* * sto, pie-|na si d'hu- mil-|ta vo-|ta d'or- go- *|gli- o, e'n|
 f2 e2 f2 e2 | e2 e2 d2 d2 | d3 c de f2- | f2 e2 f2 c2 | d2 e2 f4 | e8- | e4 z2 c2- | %50
w: _ som- ma tal,|ch'a mor- te'i mi|ri- * * * to-|* gli- o, et|co- si vi-|vo,|_ è'l|
 c2 d2 d2 _e2- | e2 d2 c2 f2- | f2 e2 f2 d2 | e2 A4 d2- | dc c4 B2 | c2 _e2 d2 f2- | fedc d2 c2 | %57
w: _ vi- ver piu|_ _ non m'è|_ mo- le- *|||sto, è'l vi- *|* * * * * ver|
 f2 e2 f2 d2 | e4 c2 f2- | f2 e2 f4- | f8 |] %61
w: piu non m'è mo-|le- * *|* * sto.|_|
V:2
 z8 | z4 F4 | B6 A2 | B2 c2 d3 c | B2 A2 G4 | A6 G2 | A3 B c2 G2 | B2 A3 B c2 | A2 d3 c c2- | %9
w: |Deh|qual pie-|tà, qual an- gel|fu si pre-|sto, qual|an- * * gel|fu si _ _|pre- * * *|
 c2 B2 c2 G2 | A2 B2 G4 | z2 A2 A2 A2 | B2 c2 d3 c/B/ |"^b" A2 =B2 c3 B | AG A2 B2 F2 | %15
w: * * sto, si|pre- * sto,|a por- tar|so- pra'il cie- * *|lo il mi- *|* * * o cor-|
 G3 A Bc d2 | G2 B4 AG |"^-natural" A2 GF E2 F2- | FEDC D2 d2- | d2 c4 B2 | cBAG A3 G | %21
w: do- * * * *||* * * * gli-|* * * * o? Ch'an-|* chor sen-||
 AB c3 B/A/ B2 | c2 G2 ABcA | B2 A4 GF | G2 F4 E2 | F3 G AB c2- | cBAG A2 B2- | B2 A2 G2 c2- | %28
w: * * * * * to|tor- nar _ _ _ _|_ pur _ _|_ co- me|so- * * * gli-|* * * * o, ma-|* don- * *|
 c2 B2 c4 | z8 | z4 z2 G2 | G2 G2 B4- | B2 A2 =B2 c2 |"^b" A2 B2 G4 | A4 z2 A2 | A2 A2 G2 G2 | %36
w: * * na||in|quel suo at-|* to dol- *|c'et ho- ne-|sto, ad|ac- que- tar il|
 B4 A4 | B2 G2 F4 | G4 A2 d2 | d2 d2 c2 c2 | B3 A/G/ FE D2 | E4 z2 F2 | F2 F2 A4 | G4 F2 G2 | %44
w: cor mi-|se- ro'è me-|* sto, pie-|na si d'hu- mil-||ta vo-|ta d'or- go-|* glio, e'n|
 G2 G2 B2 F2 | B3 A G2 F2 | G4 F2 A2 | A2 c4 B2 | cBAG A2 c2- | c2 G2 G2 A2- | AGFE D2 G2- | %51
w: som- ma tal, ch'a|mor- te mi ri-|to- glio, et|co- * si|vi- * * * * *|* vo, et co-|* * * * si vi-|
 GABG A3 G | AB c3 B/A/ B2 | c6 F2 | G2 A4 GF |"^b" E2 G4 D2 | D2 F3 G A2- | AB c4 B2 | %58
w: ||vo, non|m'è mo- * *|le- * *|sto, è'l vi- ver|_ _ _ piu|
 cBAG A2 B2 | G4 F4- | F8 |] %61
w: m'è _ _ _ _ mo-|le- sto.|_|
V:3
 z8 | z8 | z8 | z8 | z4 C,4 | F,6 E,2 | F,2 D,2 C,2 C,2 | G,2 D,2 F,4- | F,2 D,2 E,2 F,2 | %9
w: ||||Deh|qual an-|gel fu si pre-|||
 D,4 C,4 | F,2 B,,2 C,4 | F,8 | z2 C,2 B,,2 B,,2 | F,2 G,2 C,2 C,2 | F,E,D,C, B,,4 | %15
w: |sto, si pre-|sto,|a por- tar|so- pra'il cie- lo'il|mi- * * * o|
"^b" E,4 D,2 B,,2 |"^b" C,2 D,2 E,4 | D,4 C,2 D,2 | B,,8 | z2 C,2 G,2 G,2 | C,2 C,2 F,3 E, | %21
w: cor do- gli-|o, il mio|cor- do- gli-|o,|ch'an- chor sen-|to tor- nar pur,|
 D,2 C,2 D,4 | C,8 | z2 F,2 C,2 D,2 | E,2 F,2 C,4 | z2 B,,2 F,4 | C,2 C,2 F,2 B,,C, | %27
w: co- me so-|glio,|pur co- me|so- gli- o,|ma- don-|na, ma- don- * *|
 D,E, F,4 E,2 | D,4 C,2 F,2 | F,2 D,2 E,2 F,2 | D,4 C,4- | C,2 C,2 G,4- | G,2 F,2 G,2 C,2 | %33
w: |* na in|quel suo at- to|dol- c'et|_ ho- ne-|* * sto, dol-|
 D,2 B,,2 C,4 | F,4 z2 F,2 | F,2 F,2 C,2 C,2 | G,4 D,4 | B,,2 C,2 D,4 | _E,4 D,3 C, | B,,4 z4 | %40
w: c'et ho- ne-|sto, ad|ac- que- tar il|cor mi-|se- ro'è me-||sto,|
 z2 B,,2 B,,2 B,,2 | C,2 C,2 D,3 C, | B,,2 B,,2 F,4 | C,4 z2 C,2 | C,2 C,2 B,,4- | B,,8 | %46
w: pie- na si|d'hu- mil- ta vol-|ta d'or- go-|glio, e'n|som- ma tal,|_|
 z4 z2 F,2 | D,2 C,2 D,4 | C,4 z4 | z2 C,4 F,2 | F,2 B,,4 C,2 | C,2 B,,2 F,3 E, | D,2 C,2 D,4 | %53
w: et|co- si vi-|vo|è'l vi-|ver piu non|m'è mo- le- *||
 C,2 F,4 D,2 | E,2 F,2 D,4 | C,4 B,,4- | B,,4 z2 F,2 | D,2 C,2 D,4 | C,4 F,2 B,,2 | C,4 F,4- | %60
w: sto, piu non|m'è mo- le-|* sto,|_ è'l|vi- ver piu|m'è mo- *|le- sto.|
 F,8 |] %61
w: _|

